src/img/logo-gazprom.svg

<?xml version="1.0" encoding="UTF-8"?>
<svg width="124px" height="60px" viewBox="0 0 124 60" version="1.1" xmlns="http://www.w3.org/2000/svg" xmlns:xlink="http://www.w3.org/1999/xlink">
    <title>Group 22</title>
    <defs>
        <polygon id="path-1" points="0 0.231054412 35.6999916 0.231054412 35.6999916 41.2130618 0 41.2130618"></polygon>
    </defs>
    <g id="Page-1" stroke="none" stroke-width="1" fill="none" fill-rule="evenodd">
        <g id="gazprom__part1" transform="translate(-46.000000, -26.000000)">
            <g id="Group-22" transform="translate(46.000000, 26.000000)">
                <path d="M101.275716,35.8146919 C100.792334,35.8146919 100.39945,35.4494125 100.39945,34.9991037 C100.39945,34.9886919 100.400755,34.9782801 100.400755,34.968736 L100.400755,21.1935375 L100.400755,21.1315007 L100.403801,21.076839 C100.450355,20.6668757 100.822355,20.346714 101.275281,20.346714 C101.728208,20.346714 102.100643,20.6668757 102.146762,21.076839 L102.150243,21.1315007 C102.151113,21.1414787 102.151113,21.1826919 102.150243,21.1935375 L102.150243,34.968736 C102.151113,34.9782801 102.151113,34.9886919 102.151113,34.9991037 C102.151113,35.4494125 101.758664,35.8146919 101.275716,35.8146919 M102.913822,17.8058096 L99.6345656,17.8058096 C96.8613165,17.8058096 96.6977235,20.036964 96.6977235,21.4768243 L96.6977235,34.6828463 C96.6977235,36.1227066 96.8613165,38.3547287 99.6345656,38.3547287 L102.913822,38.3547287 C105.68446,38.3547287 105.854145,36.1227066 105.854145,34.6828463 L105.854145,21.4768243 C105.854145,20.036964 105.68446,17.8058096 102.913822,17.8058096" id="Fill-1" fill="#FEFEFE"></path>
                <polygon id="Fill-3" fill="#FEFEFE" points="41.2113347 17.8055059 48.7614119 17.8055059 48.7614119 20.3572559 45.1680225 20.3572559 45.1680225 38.3552926 41.2113347 38.3552926"></polygon>
                <path d="M49.3462568,38.3553794 L53.2194077,38.3553794 L53.587927,32.8935412 L55.4557586,32.8935412 L55.8216674,38.3553794 L59.6961235,38.3553794 L57.6311972,17.8055926 L51.4111832,17.8055926 L49.3462568,38.3553794 Z M53.7271551,30.6341882 L54.4093726,20.3543059 L54.6330077,20.3543059 L55.3121796,30.6341882 L53.7271551,30.6341882 Z" id="Fill-5" fill="#FEFEFE"></path>
                <path d="M65.3614442,31.1604162 L65.3614442,35.0262176 C65.3614442,35.5572176 65.7560688,35.7064529 65.9840547,35.7064529 C66.3521389,35.7064529 66.6071004,35.3810853 66.6071004,35.0262176 L66.6071004,30.2493868 C66.6071004,29.6038574 66.4939775,28.9006294 65.0212056,28.9006294 L63.4118161,28.9006294 L63.4118161,26.6404088 L65.0755916,26.6404088 C66.2063846,26.6404088 66.6071004,26.3727397 66.6071004,25.1155191 L66.6071004,21.0284676 C66.6071004,20.6762029 66.3521389,20.3573426 65.9840547,20.3573426 C65.7560688,20.3573426 65.3614442,20.5022397 65.3614442,21.0284676 L65.3614442,24.3819235 L61.4034512,24.3819235 L61.4034512,21.4770412 C61.4034512,20.0371809 61.5727004,17.8051588 64.3429039,17.8051588 L67.6256407,17.8051588 C70.3980196,17.8051588 70.5655284,20.0371809 70.5655284,21.4770412 L70.5655284,24.7649897 C70.5655284,26.9952765 69.0666512,27.6100044 67.8784267,27.5501368 L67.8784267,27.7579382 C70.5363775,27.6959015 70.5655284,29.8099235 70.5655284,30.5478574 L70.5655284,34.6830632 C70.5655284,36.1224897 70.3980196,38.3553794 67.6256407,38.3553794 L64.3429039,38.3553794 C61.5727004,38.3553794 61.4034512,36.1224897 61.4034512,34.6830632 L61.4034512,31.1604162 L65.3614442,31.1604162 Z" id="Fill-7" fill="#FEFEFE"></path>
                <polygon id="Fill-9" fill="#FEFEFE" points="73.1687888 17.8055059 82.3317361 17.8055059 82.3317361 38.3552926 78.6391467 38.3552926 78.6391467 20.3572559 76.8618133 20.3572559 76.8618133 38.3552926 73.1687888 38.3552926"></polygon>
                <path d="M85.1991382,38.3553794 L89.1575663,38.3553794 L89.1575663,31.3690853 L91.4182821,31.3690853 C94.1897909,31.3690853 94.6296646,29.1361956 94.6296646,27.6963353 L94.6296646,21.4770412 C94.6296646,20.0376147 94.1897909,17.8055926 91.4182821,17.8055926 L85.1991382,17.8055926 L85.1991382,38.3553794 Z M89.1575663,29.1053941 L89.1575663,20.3577765 L90.197426,20.3577765 C90.6251172,20.3577765 90.9340295,20.7373721 90.9340295,21.3794309 L90.9340295,28.0820044 C90.9340295,28.7266662 90.6251172,29.1053941 90.197426,29.1053941 L89.1575663,29.1053941 Z" id="Fill-11" fill="#FEFEFE"></path>
                <polygon id="Fill-13" fill="#FEFEFE" points="118.488048 17.8055059 123.6347 17.8055059 123.6347 38.3552926 119.672792 38.3552926 119.672792 25.4681309 119.534869 25.4681309 117.495613 38.3552926 114.33209 38.3552926 112.295879 25.4681309 112.153606 25.4681309 112.153606 38.3552926 108.193872 38.3552926 108.193872 17.8055059 113.338349 17.8055059 115.909283 32.2483588"></polygon>
                <path d="M32.7668477,19.8943662 C32.7194232,21.9767191 32.4696828,24.1766382 32.1525039,25.4893882 C32.2664968,23.2248294 31.9941319,20.0310206 31.4689811,17.5356676 C30.947746,15.0394471 29.469753,10.8795132 28.2884898,8.94899853 C27.1994653,10.7840721 25.8554793,14.3882779 25.1532477,17.5135426 C24.4462302,20.6435794 24.4249109,24.4278221 24.4249109,25.5618368 C24.2382582,24.6013515 23.7683635,21.1932338 23.9023705,17.7642926 C24.0120126,14.9335941 24.6759565,12.0304471 25.0401249,10.6921015 C26.4254442,6.22718971 27.9943705,3.37566765 28.2884898,2.92362353 C28.5839144,3.37566765 30.5613881,6.88703529 31.5851495,10.580175 C32.6058653,14.2763515 32.8099214,17.8098441 32.7668477,19.8943662 M28.3128547,35.8399838 C27.698946,34.6864471 26.7434933,32.4878294 26.6512547,29.0948956 C26.6295004,25.8112853 27.9465109,22.9957706 28.3315635,22.4092412 C28.6757179,22.9957706 29.8117319,25.448175 29.946174,28.7994618 C30.0375425,32.0796015 28.9485179,34.6617191 28.3128547,35.8399838 M33.1288407,10.6261603 C31.8801389,5.16388824 28.7440267,0.726741176 28.3128547,8.67647059e-05 C27.629767,1.01957206 25.1267074,4.9383 23.8584267,9.28955 C22.4704968,14.1405647 22.2660056,18.4432265 22.7446021,22.6816824 C23.220153,26.9171015 25.0170653,31.26705 25.0170653,31.26705 C25.9716477,33.5515647 27.4017811,35.9974618 28.3315635,37.1978515 C29.6964337,35.4317559 32.8342863,30.1594985 33.8110582,23.2695132 C34.3549179,19.4418882 34.3779775,16.0871309 33.1288407,10.6261603" id="Fill-15" fill="#FEFEFE"></path>
                <g id="Group-19" transform="translate(0.000000, 17.683949)">
                    <mask id="mask-2" fill="white">
                        <use xlink:href="#path-1"></use>
                    </mask>
                    <g id="Clip-18"></g>
                    <path d="M20.6389951,20.6671794 L20.6389951,27.1285471 C20.6468267,27.1190029 20.6537881,27.1094588 20.6651004,27.0981794 C22.9288618,24.8518412 26.6031775,24.8518412 28.8682442,27.0981794 C31.1333109,29.3484221 31.1333109,33.0012162 28.8682442,35.2466868 C28.8578021,35.2584 28.8491004,35.265775 28.8382232,35.2753191 C28.8382232,35.2766206 28.8382232,35.2766206 28.8369179,35.2766206 C28.827346,35.2883338 28.8151635,35.2978779 28.8047214,35.3091574 C26.545746,37.5346721 23.5928056,38.6526353 20.6389951,38.6526353 C17.6721319,38.6526353 14.7070091,37.5229588 12.4423775,35.2813926 C8.45653895,31.3210176 7.98229333,25.1923926 11.0218161,20.7192382 C11.4325389,20.1140544 11.9033039,19.5396721 12.4423775,19.0052015 C14.7070091,16.7588632 17.6721319,15.6382971 20.6389951,15.6382971 L20.6389951,0.231054412 C9.24187228,0.231054412 -0.000261052635,9.40859118 -0.000261052635,20.7192382 C-0.000261052635,32.0368265 9.24187228,41.2130618 20.6389951,41.2130618 C26.5831635,41.2130618 31.9356126,38.7159735 35.6999916,34.7274 L35.6999916,20.6671794 L20.6389951,20.6671794 Z" id="Fill-17" fill="#FEFEFE" mask="url(#mask-2)"></path>
                </g>
                <path d="M119.940327,54.0458654 C119.940327,55.9993728 119.045352,56.3442625 116.776369,56.3442625 L114.686643,56.3442625 L114.686643,47.4244169 L116.776369,47.4244169 L116.776369,50.8655051 L117.121829,50.8655051 C119.176748,50.8655051 119.940327,51.342711 119.940327,53.127461 L119.940327,54.0458654 Z M102.501576,49.1089537 L100.916116,49.1089537 L100.916116,56.3516375 L98.9325516,56.3516375 L98.9325516,49.1089537 L97.2352744,49.1089537 L97.2352744,47.4170419 L102.501576,47.4170419 L102.501576,49.1089537 Z M86.4290007,53.1639022 C86.4290007,54.973814 85.5005235,55.4622993 83.4442989,55.4622993 L83.4442989,56.3442625 L81.4133095,56.3442625 L81.4133095,55.4622993 C79.3505586,55.4622993 78.4164253,54.973814 78.4164253,53.1639022 L78.4164253,50.3774537 C78.4164253,48.5562625 79.3118358,48.092939 81.4133095,48.092939 L81.4133095,47.4244169 L83.4442989,47.4244169 L83.4442989,48.092939 C85.5340253,48.092939 86.4290007,48.5562625 86.4290007,50.3774537 L86.4290007,53.1639022 Z M67.4857165,49.1089537 L64.6289305,49.1089537 L64.6289305,50.8637699 L67.1863761,50.8637699 L67.1863761,52.5565493 L64.6289305,52.5565493 L64.6289305,54.6588581 L67.4857165,54.6588581 L67.4857165,56.3516375 L62.4695902,56.3516375 L62.4695902,47.4170419 L67.4857165,47.4170419 L67.4857165,49.1089537 Z M50.1596533,56.3442625 L48.0712323,56.3442625 L48.0712323,52.4402846 L46.9952604,52.4402846 L46.9952604,56.3442625 L44.905534,56.3442625 L44.905534,47.4244169 L46.9952604,47.4244169 L46.9952604,50.8655051 L48.0712323,50.8655051 L48.0712323,47.4244169 L50.1596533,47.4244169 L50.1596533,56.3442625 Z M41.2107691,58.8968801 L123.634657,58.8968801 L123.634657,45.199336 L41.2107691,45.199336 L41.2107691,58.8968801 Z M80.4478498,50.3180199 L80.4478498,53.1769169 C80.4478498,53.6988066 80.6149235,53.8185419 81.0795972,53.8185419 L81.4133095,53.8185419 L81.4133095,49.6625125 L81.0795972,49.6625125 C80.6149235,49.6625125 80.4478498,49.7956963 80.4478498,50.3180199 L80.4478498,50.3180199 Z M117.239302,52.4402846 L116.776369,52.4402846 L116.776369,54.7716522 L117.239302,54.7716522 C117.707892,54.7716522 117.850601,54.6514831 117.850601,54.1413066 L117.850601,53.0675934 C117.850601,52.5569831 117.707892,52.4402846 117.239302,52.4402846 L117.239302,52.4402846 Z M83.7666989,49.6625125 L83.4442989,49.6625125 L83.4442989,53.8185419 L83.7666989,53.8185419 C84.2322428,53.8185419 84.3997516,53.6883949 84.3997516,53.1639022 L84.3997516,50.2941596 C84.3997516,49.7683654 84.2322428,49.6625125 83.7666989,49.6625125 L83.7666989,49.6625125 Z" id="Fill-20" fill="#FEFEFE"></path>
            </g>
        </g>
    </g>
</svg>

<svg width="124" height="60" xmlns="http://www.w3.org/2000/svg" xmlns:xlink="http://www.w3.org/1999/xlink"><defs><path id="a" d="M0 .231h35.7v40.982H0z"/></defs><g fill="none" fill-rule="evenodd"><path d="M101.276 35.815c-.484 0-.877-.366-.877-.816l.002-.03V21.132l.003-.055c.046-.41.418-.73.871-.73s.826.32.872.73l.003.055v13.837l.001.03c0 .45-.392.816-.875.816m1.638-18.01h-3.28c-2.773 0-2.936 2.232-2.936 3.672v13.206c0 1.44.163 3.672 2.937 3.672h3.279c2.77 0 2.94-2.232 2.94-3.672V21.477c0-1.44-.17-3.671-2.94-3.671m-61.703 0h7.55v2.551h-3.593v17.998h-3.957zm8.135 20.549h3.873l.369-5.461h1.868l.366 5.461h3.874l-2.065-20.55h-6.22l-2.065 20.55zm4.381-7.72l.682-10.28h.224l.68 10.28h-1.586zm11.634.525v3.866c0 .531.395.68.623.68.368 0 .623-.325.623-.68V30.25c0-.645-.113-1.348-1.586-1.348h-1.61v-2.26h1.665c1.13 0 1.531-.268 1.531-1.525v-4.088c0-.352-.255-.67-.623-.67-.228 0-.623.144-.623.67v3.354h-3.958v-2.905c0-1.44.17-3.672 2.94-3.672h3.283c2.772 0 2.94 2.232 2.94 3.672v3.288c0 2.23-1.5 2.845-2.688 2.785v.208c2.658-.062 2.688 2.052 2.688 2.79v4.135c0 1.44-.168 3.672-2.94 3.672h-3.283c-2.77 0-2.94-2.233-2.94-3.672V31.16h3.958zm7.808-13.354h9.163v20.55h-3.693v-18h-1.777v17.998h-3.693zM85.2 38.355h3.958V31.37h2.26c2.772 0 3.212-2.233 3.212-3.673v-6.219c0-1.44-.44-3.671-3.212-3.671H85.2v20.55zm3.958-9.25v-8.747h1.04c.427 0 .736.38.736 1.021v6.703c0 .645-.309 1.023-.737 1.023h-1.04zm29.33-11.299h5.147v20.55h-3.962V25.467h-.138l-2.04 12.887h-3.163l-2.036-12.887h-.142v12.887h-3.96v-20.55h5.144l2.571 14.443zm-85.721 2.088c-.048 2.083-.297 4.283-.614 5.595.113-2.264-.159-5.458-.684-7.953-.521-2.497-2-6.656-3.18-8.587-1.09 1.835-2.434 5.44-3.136 8.565-.707 3.13-.728 6.914-.728 8.048-.187-.96-.657-4.369-.523-7.798.11-2.83.774-5.734 1.138-7.072 1.385-4.465 2.954-7.316 3.248-7.768.296.452 2.273 3.963 3.297 7.656 1.02 3.696 1.225 7.23 1.182 9.314M28.313 35.84c-.614-1.154-1.57-3.352-1.662-6.745-.021-3.284 1.296-6.1 1.68-6.686.345.587 1.48 3.04 1.615 6.39.092 3.28-.997 5.863-1.633 7.041m4.816-25.214C31.88 5.164 28.744.726 28.313 0c-.683 1.02-3.186 4.938-4.455 9.29-1.388 4.85-1.592 9.153-1.113 13.392.475 4.235 2.272 8.585 2.272 8.585.955 2.285 2.385 4.73 3.315 5.93 1.364-1.765 4.502-7.038 5.48-13.927.543-3.828.566-7.183-.683-12.644" fill="#FEFEFE"/><g transform="translate(0 17.684)"><mask id="b" fill="#fff"><use xlink:href="#a"/></mask><path d="M20.639 20.667v6.462c.008-.01.015-.02.026-.03a5.835 5.835 0 018.203 0 5.735 5.735 0 010 8.148.262.262 0 01-.03.028l-.001.002c-.01.011-.022.02-.032.032a11.605 11.605 0 01-8.166 3.344c-2.967 0-5.932-1.13-8.197-3.372a11.453 11.453 0 010-16.276 11.6 11.6 0 018.197-3.367V.231C9.242.231-.001 9.41-.001 20.72c0 11.318 9.243 20.494 20.64 20.494A20.648 20.648 0 0035.7 34.727v-14.06H20.639z" fill="#FEFEFE" mask="url(#b)"/></g><path d="M119.94 54.046c0 1.953-.895 2.298-3.164 2.298h-2.09v-8.92h2.09v3.442h.346c2.055 0 2.818.477 2.818 2.261v.919zm-17.438-4.937h-1.586v7.243h-1.983v-7.243h-1.698v-1.692h5.267v1.692zm-16.073 4.055c0 1.81-.928 2.298-2.985 2.298v.882h-2.03v-.882c-2.063 0-2.998-.488-2.998-2.298v-2.787c0-1.82.896-2.284 2.997-2.284v-.669h2.031v.669c2.09 0 2.985.463 2.985 2.284v2.787zm-18.943-4.055h-2.857v1.755h2.557v1.693H64.63v2.102h2.857v1.693H62.47v-8.935h5.016v1.692zM50.16 56.344h-2.09V52.44h-1.076v3.904h-2.09v-8.92h2.09v3.442h1.076v-3.442h2.089v8.92zm-8.95 2.553h82.425V45.199H41.21v13.698zm39.238-8.579v2.859c0 .522.167.642.632.642h.333v-4.156h-.333c-.465 0-.632.133-.632.655zm36.791 2.122h-.463v2.332h.463c.469 0 .612-.12.612-.63v-1.074c0-.511-.143-.628-.612-.628zm-33.472-2.777h-.323v4.156h.323c.465 0 .633-.13.633-.655v-2.87c0-.526-.168-.631-.633-.631z" fill="#FEFEFE"/></g></svg>
